X: 1
T: Fjellv\aak   [C]
T: Buteo lagopus (Rough-legged Hawk)
R: waltz
S: http://abcnotation.com/tunePage?a=thesession.org/tunes/18784.no-ext/0002
M: 3/4
L: 1/8
K: D
z2 |\
E3 G Bc | B4 G2 | E2 G2 Bc | B4 c2 | d3 c AG | F4 D2 | E3 F EC | D6 |
E3 G Bc | B4 G2 | E2 G2 Bc | B4 Bc | A3 G F2 | ED C2 B,2 | C6- | C4 :|
|: G,2 |\
A,4 B,2 | C4 D2 | E3 F EC | D4 DE | F4 F2 | E3 D C2 | D6 | G4 G,2 |
A,4 B,2 | C4 D2 | E3 F EC | D4 DE | FA EG DF | ED CB, A,B, | C6- | C4 :|
